X: 32985
T: Pretty Girls Of Mayo, The
R: reel
M: 4/4
K: Gmajor
DG~G2 A2de|fd~d2 fdcA|DG~G2 A2de|1 fdcA BGAF:|2 fdcA AGBd||
g2ge fdde|fdge fdde|~g3e fdde|fdcA AG~G2|
g2ge fdde|fdge fdd^c|defg abag|fdcA BGAF||

